images/clock 1.svg

<svg width="70" height="70" viewBox="0 0 70 70" fill="none" xmlns="http://www.w3.org/2000/svg">
<g clip-path="url(#clip0)">
<path d="M67.9614 33.4726V33.4716C67.9577 15.2582 53.1896 0.496318 34.9756 0.500001C16.7621 0.503683 2.00025 15.2724 2.00394 33.4858C2.00709 47.8322 11.284 60.5305 24.9505 64.8947C25.0347 64.921 25.1209 64.9341 25.2062 64.9338L25.2071 64.9338C25.3823 64.9335 25.5532 64.8867 25.7029 64.7983C25.8921 64.6865 26.0336 64.5084 26.1002 64.2981L34.5547 37.5017L34.6644 37.154L35.029 37.1521C37.0642 37.1418 38.7053 35.4832 38.6945 33.4486V33.4484C38.6842 31.4132 37.0261 29.772 34.9908 29.7824L34.9904 29.7824C34.4441 29.7847 33.9047 29.9105 33.4139 30.1503L33.0932 30.307L32.8408 30.0546L21.675 18.8872C21.3191 18.5466 20.7548 18.5575 20.4124 18.9118C20.0782 19.2582 20.0773 19.8056 20.4099 20.153L31.57 31.3259L31.8224 31.5785L31.6652 31.8992C30.913 33.4347 31.3431 35.2882 32.6956 36.3349L32.9713 36.5483L32.8664 36.8808L24.8107 62.4151L24.6529 62.9151L24.161 62.7339C7.98163 56.774 -0.302914 38.8268 5.65703 22.6475C11.617 6.46808 29.5641 -1.81646 45.7435 4.14348C61.9228 10.1034 70.2074 28.0511 64.2474 44.2299C61.3356 52.1345 55.3529 58.527 47.6583 61.9556L47.094 62.207L46.9657 61.6027L46.0952 57.5028L46.0951 57.5022C45.9931 57.0193 45.5183 56.7102 45.0349 56.8124C44.8822 56.845 44.7406 56.9167 44.624 57.0205L67.9614 33.4726ZM67.9614 33.4726C67.9898 46.7176 60.0653 58.6854 47.8603 63.8307L47.4795 63.9913L47.5655 64.3955L48.4208 68.4176C48.4209 68.4178 48.4209 68.418 48.421 68.4182C48.4532 68.5718 48.4451 68.7298 48.3974 68.8777L48.3972 68.8784C48.2461 69.3491 47.7423 69.6078 47.2718 69.4567L47.2709 69.4564L36.555 66.0363C36.4012 65.9872 36.264 65.898 36.1569 65.7779C35.8279 65.4084 35.8609 64.8429 36.2301 64.5144L36.2308 64.5138L44.6237 57.0208L67.9614 33.4726ZM24.7995 65.3713C24.932 65.413 25.0698 65.4343 25.2081 65.4338L24.7995 65.3713ZM39.2446 64.2185L38.5916 64.801L39.425 65.0678L45.5213 67.0192L46.3416 67.2818L46.1628 66.4392L44.8442 60.226L44.6653 59.3831L44.0223 59.9567L39.2446 64.2185ZM36.8779 33.4715C36.8779 32.4253 36.0292 31.5766 34.9829 31.5766C33.936 31.5766 33.088 32.4254 33.088 33.4715C33.088 34.5183 33.9362 35.3665 34.9829 35.3665C36.0291 35.3665 36.8779 34.5184 36.8779 33.4715Z" fill="#212121"/>
<path d="M67.9614 33.4726V33.4716C67.9577 15.2582 53.1896 0.496318 34.9756 0.500001C16.7621 0.503683 2.00025 15.2724 2.00394 33.4858C2.00709 47.8322 11.284 60.5305 24.9505 64.8947C25.0347 64.921 25.1209 64.9341 25.2062 64.9338L25.2071 64.9338C25.3823 64.9335 25.5532 64.8867 25.7029 64.7983C25.8921 64.6865 26.0336 64.5084 26.1002 64.2981L34.5547 37.5017L34.6644 37.154L35.029 37.1521C37.0642 37.1418 38.7053 35.4832 38.6945 33.4486V33.4484C38.6842 31.4132 37.0261 29.772 34.9908 29.7824L34.9904 29.7824C34.4441 29.7847 33.9047 29.9105 33.4139 30.1503L33.0932 30.307L32.8408 30.0546L21.675 18.8872C21.3191 18.5466 20.7548 18.5575 20.4124 18.9118C20.0782 19.2582 20.0773 19.8056 20.4099 20.153L31.57 31.3259L31.8224 31.5785L31.6652 31.8992C30.913 33.4347 31.3431 35.2882 32.6956 36.3349L32.9713 36.5483L32.8664 36.8808L24.8107 62.4151L24.6529 62.9151L24.161 62.7339C7.98163 56.774 -0.302914 38.8268 5.65703 22.6475C11.617 6.46808 29.5641 -1.81646 45.7435 4.14348C61.9228 10.1034 70.2074 28.0511 64.2474 44.2299C61.3356 52.1345 55.3529 58.527 47.6583 61.9556L47.094 62.207L46.9657 61.6027L46.0952 57.5028L46.0951 57.5022C45.9931 57.0193 45.5183 56.7102 45.0349 56.8124C44.8822 56.845 44.7406 56.9167 44.624 57.0205L67.9614 33.4726ZM67.9614 33.4726C67.9898 46.7176 60.0653 58.6854 47.8603 63.8307L47.4795 63.9913L47.5655 64.3955L48.4208 68.4176C48.4209 68.4178 48.4209 68.418 48.421 68.4182C48.4532 68.5718 48.4451 68.7298 48.3974 68.8777L48.3972 68.8784C48.2461 69.3491 47.7423 69.6078 47.2718 69.4567L47.2709 69.4564L36.555 66.0363C36.4012 65.9872 36.264 65.898 36.1569 65.7779C35.8279 65.4084 35.8609 64.8429 36.2301 64.5144L36.2308 64.5138L44.6237 57.0208L67.9614 33.4726ZM24.7995 65.3713C24.932 65.413 25.0698 65.4343 25.2081 65.4338L24.7995 65.3713ZM39.2446 64.2185L38.5916 64.801L39.425 65.0678L45.5213 67.0192L46.3416 67.2818L46.1628 66.4392L44.8442 60.226L44.6653 59.3831L44.0223 59.9567L39.2446 64.2185ZM36.8779 33.4715C36.8779 32.4253 36.0292 31.5766 34.9829 31.5766C33.936 31.5766 33.088 32.4254 33.088 33.4715C33.088 34.5183 33.9362 35.3665 34.9829 35.3665C36.0291 35.3665 36.8779 34.5184 36.8779 33.4715Z" stroke="black"/>
<path d="M67.9614 33.4726V33.4716C67.9577 15.2582 53.1896 0.496318 34.9756 0.500001C16.7621 0.503683 2.00025 15.2724 2.00394 33.4858C2.00709 47.8322 11.284 60.5305 24.9505 64.8947C25.0347 64.921 25.1209 64.9341 25.2062 64.9338L25.2071 64.9338C25.3823 64.9335 25.5532 64.8867 25.7029 64.7983C25.8921 64.6865 26.0336 64.5084 26.1002 64.2981L34.5547 37.5017L34.6644 37.154L35.029 37.1521C37.0642 37.1418 38.7053 35.4832 38.6945 33.4486V33.4484C38.6842 31.4132 37.0261 29.772 34.9908 29.7824L34.9904 29.7824C34.4441 29.7847 33.9047 29.9105 33.4139 30.1503L33.0932 30.307L32.8408 30.0546L21.675 18.8872C21.3191 18.5466 20.7548 18.5575 20.4124 18.9118C20.0782 19.2582 20.0773 19.8056 20.4099 20.153L31.57 31.3259L31.8224 31.5785L31.6652 31.8992C30.913 33.4347 31.3431 35.2882 32.6956 36.3349L32.9713 36.5483L32.8664 36.8808L24.8107 62.4151L24.6529 62.9151L24.161 62.7339C7.98163 56.774 -0.302914 38.8268 5.65703 22.6475C11.617 6.46808 29.5641 -1.81646 45.7435 4.14348C61.9228 10.1034 70.2074 28.0511 64.2474 44.2299C61.3356 52.1345 55.3529 58.527 47.6583 61.9556L47.094 62.207L46.9657 61.6027L46.0952 57.5028L46.0951 57.5022C45.9931 57.0193 45.5183 56.7102 45.0349 56.8124C44.8822 56.845 44.7406 56.9167 44.624 57.0205L67.9614 33.4726ZM67.9614 33.4726C67.9898 46.7176 60.0653 58.6854 47.8603 63.8307L47.4795 63.9913L47.5655 64.3955L48.4208 68.4176C48.4209 68.4178 48.4209 68.418 48.421 68.4182C48.4532 68.5718 48.4451 68.7298 48.3974 68.8777L48.3972 68.8784C48.2461 69.3491 47.7423 69.6078 47.2718 69.4567L47.2709 69.4564L36.555 66.0363C36.4012 65.9872 36.264 65.898 36.1569 65.7779C35.8279 65.4084 35.8609 64.8429 36.2301 64.5144L36.2308 64.5138L44.6237 57.0208L67.9614 33.4726ZM24.7995 65.3713C24.932 65.413 25.0698 65.4343 25.2081 65.4338L24.7995 65.3713ZM39.2446 64.2185L38.5916 64.801L39.425 65.0678L45.5213 67.0192L46.3416 67.2818L46.1628 66.4392L44.8442 60.226L44.6653 59.3831L44.0223 59.9567L39.2446 64.2185ZM36.8779 33.4715C36.8779 32.4253 36.0292 31.5766 34.9829 31.5766C33.936 31.5766 33.088 32.4254 33.088 33.4715C33.088 34.5183 33.9362 35.3665 34.9829 35.3665C36.0291 35.3665 36.8779 34.5184 36.8779 33.4715Z" stroke="url(#paint0_linear)"/>
<path d="M33.588 6.96732V9.75723C33.588 10.5279 34.2123 11.1522 34.9829 11.1522C35.753 11.1522 36.3779 10.5279 36.3779 9.75723V6.96732C36.3779 6.1972 35.753 5.57236 34.9829 5.57236C34.2123 5.57236 33.588 6.1972 33.588 6.96732Z" fill="#2196F3"/>
<path d="M8.47871 32.0765C7.70807 32.0765 7.08376 32.7014 7.08376 33.4715C7.08376 34.2421 7.70807 34.8665 8.47871 34.8665H11.2686C12.0393 34.8665 12.6636 34.2421 12.6636 33.4715C12.6636 32.7014 12.0393 32.0765 11.2686 32.0765H8.47871Z" fill="#2196F3"/>
<path d="M61.4865 34.8665C62.2572 34.8665 62.8815 34.2421 62.8815 33.4715C62.8815 32.7014 62.2572 32.0765 61.4865 32.0765H58.6966C57.9265 32.0765 57.3017 32.7014 57.3017 33.4715C57.3017 34.2421 57.9265 34.8665 58.6966 34.8665H61.4865Z" fill="#2196F3"/>
</g>
<defs>
<linearGradient id="paint0_linear" x1="34.9827" y1="0" x2="34.9827" y2="69.9999" gradientUnits="userSpaceOnUse">
<stop stop-color="white"/>
<stop offset="1" stop-color="white" stop-opacity="0"/>
</linearGradient>
<clipPath id="clip0">
<rect width="70" height="70" fill="white"/>
</clipPath>
</defs>
</svg>

<svg width="70" height="70" fill="none" xmlns="http://www.w3.org/2000/svg"><g clip-path="url(#clip0)"><path d="M67.961 33.473v-.001C67.958 15.258 53.19.496 34.976.5 16.762.504 2 15.272 2.004 33.486A32.979 32.979 0 0024.95 64.895c.084.026.17.04.255.039h.001a.977.977 0 00.496-.136c.19-.112.33-.29.397-.5l8.455-26.796.11-.348.364-.002a3.685 3.685 0 10-.038-7.37 3.627 3.627 0 00-1.577.368l-.32.157-.253-.252-11.166-11.168a.895.895 0 00-1.265 1.266l11.16 11.173.252.252-.157.321a3.604 3.604 0 001.03 4.436l.276.213-.105.333-8.055 25.534-.158.5-.492-.181C7.981 56.774-.303 38.827 5.657 22.647 11.617 6.469 29.564-1.816 45.744 4.143c16.179 5.96 24.463 23.908 18.503 40.087a31.22 31.22 0 01-16.589 17.726l-.564.251-.128-.604-.87-4.1a.894.894 0 00-1.472-.483l23.337-23.547zm0 0a32.87 32.87 0 01-20.1 30.358l-.381.16.086.404.855 4.023a.894.894 0 01-1.15 1.038l-10.716-3.42a.895.895 0 01-.325-1.522l8.394-7.493L67.96 33.473zM24.8 65.37c.133.042.27.063.41.063l-.41-.063zm14.446-1.152l-.653.582.833.267 6.096 1.951.82.263-.178-.843-1.319-6.213-.179-.843-.643.574-4.777 4.262zm-2.367-30.747a1.895 1.895 0 10-3.79 0 1.895 1.895 0 003.79 0z" fill="#212121"/><path d="M67.961 33.473v-.001C67.958 15.258 53.19.496 34.976.5 16.762.504 2 15.272 2.004 33.486A32.979 32.979 0 0024.95 64.895c.084.026.17.04.255.039h.001a.977.977 0 00.496-.136c.19-.112.33-.29.397-.5l8.455-26.796.11-.348.364-.002a3.684 3.684 0 003.665-3.703v0a3.685 3.685 0 00-3.703-3.667h0a3.627 3.627 0 00-1.577.368l-.32.157-.253-.252-11.166-11.168a.895.895 0 00-1.265 1.266l11.16 11.173.252.252-.157.321a3.604 3.604 0 001.03 4.436l.276.213-.105.333-8.055 25.534-.158.5-.492-.181C7.981 56.774-.303 38.827 5.657 22.647 11.617 6.469 29.564-1.816 45.744 4.143c16.179 5.96 24.463 23.908 18.503 40.087a31.22 31.22 0 01-16.589 17.726l-.564.251-.128-.604-.87-4.1h0a.894.894 0 00-1.472-.483l23.337-23.547zm0 0a32.87 32.87 0 01-20.1 30.358l-.381.16.086.404.855 4.023s0 0 0 0a.896.896 0 01-.024.46h0a.894.894 0 01-1.125.579h-.001l-10.716-3.42a.895.895 0 01-.325-1.522v-.001l8.394-7.493L67.96 33.473zM24.8 65.37c.133.042.27.063.41.063l-.41-.063zm14.446-1.152l-.653.582.833.267 6.096 1.951.82.263-.178-.843-1.319-6.213-.179-.843-.643.574-4.777 4.262zm-2.367-30.747a1.895 1.895 0 10-3.79 0 1.895 1.895 0 003.79 0z" stroke="#000"/><path d="M67.961 33.473v-.001C67.958 15.258 53.19.496 34.976.5 16.762.504 2 15.272 2.004 33.486A32.979 32.979 0 0024.95 64.895c.084.026.17.04.255.039h.001a.977.977 0 00.496-.136c.19-.112.33-.29.397-.5l8.455-26.796.11-.348.364-.002a3.684 3.684 0 003.665-3.703v0a3.685 3.685 0 00-3.703-3.667h0a3.627 3.627 0 00-1.577.368l-.32.157-.253-.252-11.166-11.168a.895.895 0 00-1.265 1.266l11.16 11.173.252.252-.157.321a3.604 3.604 0 001.03 4.436l.276.213-.105.333-8.055 25.534-.158.5-.492-.181C7.981 56.774-.303 38.827 5.657 22.647 11.617 6.469 29.564-1.816 45.744 4.143c16.179 5.96 24.463 23.908 18.503 40.087a31.22 31.22 0 01-16.589 17.726l-.564.251-.128-.604-.87-4.1h0a.894.894 0 00-1.472-.483l23.337-23.547zm0 0a32.87 32.87 0 01-20.1 30.358l-.381.16.086.404.855 4.023s0 0 0 0a.896.896 0 01-.024.46h0a.894.894 0 01-1.125.579h-.001l-10.716-3.42a.895.895 0 01-.325-1.522v-.001l8.394-7.493L67.96 33.473zM24.8 65.37c.133.042.27.063.41.063l-.41-.063zm14.446-1.152l-.653.582.833.267 6.096 1.951.82.263-.178-.843-1.319-6.213-.179-.843-.643.574-4.777 4.262zm-2.367-30.747a1.895 1.895 0 10-3.79 0 1.895 1.895 0 003.79 0z" stroke="url(#paint0_linear)"/><path d="M33.588 6.967v2.79a1.395 1.395 0 102.79 0v-2.79a1.395 1.395 0 00-2.79 0zM8.479 32.077a1.395 1.395 0 000 2.79h2.79a1.395 1.395 0 100-2.79h-2.79zM61.486 34.867a1.395 1.395 0 100-2.79h-2.79a1.395 1.395 0 000 2.79h2.79z" fill="#2196F3"/></g><defs><linearGradient id="paint0_linear" x1="34.983" y1="0" x2="34.983" y2="70" gradientUnits="userSpaceOnUse"><stop stop-color="#fff"/><stop offset="1" stop-color="#fff" stop-opacity="0"/></linearGradient><clipPath id="clip0"><path fill="#fff" d="M0 0h70v70H0z"/></clipPath></defs></svg>
